; generated by Slic3r Prusa Edition 1.41.0+win64 on 2018-09-17 at 00:26:55

; 

; external perimeters extrusion width = 0.45mm
; perimeters extrusion width = 0.45mm
; infill extrusion width = 0.45mm
; solid infill extrusion width = 0.45mm
; top infill extrusion width = 0.40mm
; first layer extrusion width = 0.42mm

; external perimeters extrusion width = 0.45mm
; perimeters extrusion width = 0.45mm
; infill extrusion width = 0.45mm
; solid infill extrusion width = 0.45mm
; top infill extrusion width = 0.40mm
; first layer extrusion width = 0.42mm

M201 X1000 Y1000 Z1000 E8000 ; sets maximum accelerations, mm/sec^2
M203 X200 Y200 Z12 E120 ; sets maximum feedrates, mm/sec
M204 P1250 R1250 T1250 ; sets acceleration (P, T) and retract acceleration (R), mm/sec^2
M205 X8.00 Y8.00 Z0.40 E1.50 ; sets the jerk limits, mm/sec
M205 S0 T0 ; sets the minimum extruding and travel feed rate, mm/sec
M107
M107
M115 U3.4.0 ; tell printer latest fw version
M83  ; extruder relative mode
M104 S215 ; set extruder temp
M140 S60 ; set bed temp
M190 S60 ; wait for bed temp
M109 S215 ; wait for extruder temp
G28 W ; home all without mesh bed level
G80 ; mesh bed leveling
G21 ; set units to millimeters

; Send the filament type to the MMU2.0 unit.
; E stands for extruder number, F stands for filament type (0: default; 1:flex; 2: PVA)
M403 E0 F0
M403 E1 F0
M403 E2 F0
M403 E3 F0
M403 E4 F0


;go outside print area
G1 Y-3.0 F1000.0
G1 Z0.4 F1000.0
; select extruder
T0
; initial load
G1 X55.0 E32.0 F1073.0
M73 Q0 S56
M73 P0 R56
G1 X5.0 E32.0 F1800.0
G1 X55.0 E8.0 F2000.0
G1 Z0.3 F1000.0
G92 E0.0
G1 X240.0 E25.0  F2200.0
G1 Y-2.0 F1000.0
G1 X55.0 E25 F1400.0
G1 Z0.20 F1000.0
G1 X5.0 E4.0 F1000.0
G92 E0.0


M221 S95
G90 ; use absolute coordinates
M83 ; use relative distances for extrusion
G92 E0.0
G21 ; set units to millimeters
G90 ; use absolute coordinates
M83 ; use relative distances for extrusion
T0
M900 K30; Filament gcode
G1 Z0.200 F10800.000
;BEFORE_LAYER_CHANGE
G92 E0.0
;0.2


G1 E-0.80000 F2100.00000
G1 Z0.800 F10800.000
G1 Z0.200
;AFTER_LAYER_CHANGE
;0.2
M900 K0
G1 E-2.20000 F2100.00000
G1 Z0.800 F10800.000
G1 X202.023 Y66.119
G1 Z0.200
G1 E3.00000 F2100.00000
;-------------------------------------
; CP WIPE TOWER FIRST LAYER BRIM START
G1 X202.023 Y84.599 E1.0535 F2400
G1 X199.523 Y85.099  F7000
G1 Y65.619 E0.8144 F2100
G1 X138.523 E2.5502
G1 Y85.099 E0.8144
G1 X199.523 E2.5502
G1 X200.023 Y85.599  F7000
G1 Y65.119 E0.8562 F2100
G1 X138.023 E2.5920
G1 Y85.599 E0.8562
G1 X200.023 E2.5920
G1 X200.523 Y86.099  F7000
G1 Y64.619 E0.8980 F2100
G1 X137.523 E2.6338
G1 Y86.099 E0.8980
G1 X200.523 E2.6338
G1 X201.023 Y86.599  F7000
G1 Y64.119 E0.9398 F2100
G1 X137.023 E2.6756
G1 Y86.599 E0.9398
G1 X201.023 E2.6756
G1 X199.023 Y84.599  F7000
G1 X139.023
G1 X199.023
; CP WIPE TOWER FIRST LAYER BRIM END
;-----------------------------------
G1 X139.523 Y66.619  F7200
;--------------------
; CP EMPTY GRID START
; layer #1
G1 X139.023
G1 Y66.119
G1 X199.023 E2.2804 F1450
G1 Y84.599 E0.7024
G1 X139.023 E2.2804
G1 Y66.119 E0.7024
G1 X139.523
G1 Y66.619
G1 X198.523 E2.2424
G1 Y84.099 E0.6644
G1 X139.523 E2.2424
G1 Y66.619 E0.6644
G1 X198.523
G1 Y84.099
G1 X198.023 Y83.568  E0.0277
M73 Q2 S55
G1 X140.023 E2.2044
M73 P2 R55
G1 Y83.038 E0.0202
G1 X198.023 E2.2044
G1 Y82.507 E0.0202
G1 X140.023 E2.2044
G1 Y81.976 E0.0202
G1 X198.023 E2.2044
G1 Y81.446 E0.0202
G1 X140.023 E2.2044
G1 Y80.915 E0.0202
G1 X198.023 E2.2044
G1 Y80.385 E0.0202
G1 X140.023 E2.2044
G1 Y79.854 E0.0202
G1 X198.023 E2.2044
G1 Y79.323 E0.0202
G1 X140.023 E2.2044
G1 Y78.793 E0.0202
G1 X198.023 E2.2044
G1 Y78.262 E0.0202
G1 X140.023 E2.2044
G1 Y77.731 E0.0202
G1 X198.023 E2.2044
G1 Y77.201 E0.0202
G1 X140.023 E2.2044
G1 Y76.670 E0.0202
G1 X198.023 E2.2044
G1 Y76.140 E0.0202
G1 X140.023 E2.2044
G1 Y75.609 E0.0202
G1 X198.023 E2.2044
G1 Y75.078 E0.0202
G1 X140.023 E2.2044
G1 Y74.548 E0.0202
G1 X198.023 E2.2044
G1 Y74.017 E0.0202
G1 X140.023 E2.2044
G1 Y73.486 E0.0202
G1 X198.023 E2.2044
G1 Y72.956 E0.0202
G1 X140.023 E2.2044
G1 Y72.425 E0.0202
G1 X198.023 E2.2044
G1 Y71.895 E0.0202
G1 X140.023 E2.2044
G1 Y71.364 E0.0202
G1 X198.023 E2.2044
G1 Y70.833 E0.0202
G1 X140.023 E2.2044
M73 Q4 S54
G1 Y70.303 E0.0202
G1 X198.023 E2.2044
M73 P4 R54
G1 Y69.772 E0.0202
G1 X140.023 E2.2044
G1 Y69.241 E0.0202
G1 X198.023 E2.2044
G1 Y68.711 E0.0202
G1 X140.023 E2.2044
G1 Y68.180 E0.0202
G1 X198.023 E2.2044
G1 Y67.650 E0.0202
G1 X140.023 E2.2044
G1 Y67.119 E0.0202
G1 X198.023 E2.2044
G1 X140.023
; CP EMPTY GRID END
;------------------







M900 K30; Filament gcode
G1 F8640
G1 X136.731 Y67.119 E-0.76000
G1 E-0.04000 F2100.00000
G1 Z0.800 F10800.000
G1 X121.890 Y45.614
G1 Z0.200
G1 E0.80000 F2100.00000
M204 S1000
G1 F1200
G1 X122.677 Y45.335 E0.02620
G1 X127.004 Y45.311 E0.13565
G1 X127.511 Y45.372 E0.01601
G1 X127.993 Y45.550 E0.01612
G1 X128.421 Y45.835 E0.01612
G1 X128.770 Y46.213 E0.01612
G1 X196.883 Y141.385 E3.66957
G1 X197.106 Y141.905 E0.01771
G1 X197.188 Y142.467 E0.01783
G1 X197.189 Y162.500 E0.62812
G1 X197.106 Y163.095 E0.01885
G1 X196.865 Y163.646 E0.01885
G1 X196.520 Y164.075 E0.01726
G1 X196.075 Y164.406 E0.01737
G1 X195.562 Y164.615 E0.01737
G1 X195.013 Y164.688 E0.01737
G1 X54.996 Y164.689 E4.39013
G1 X54.405 Y164.606 E0.01873
G1 X53.854 Y164.365 E0.01885
G1 X53.433 Y164.028 E0.01692
G1 X53.107 Y163.598 E0.01692
G1 X52.896 Y163.101 E0.01692
G1 X52.813 Y162.568 E0.01692
G1 X52.812 Y142.467 E0.63025
G1 X52.898 Y141.891 E0.01828
G1 X53.135 Y141.354 E0.01839
G1 X121.264 Y46.167 E3.67019
G1 X121.845 Y45.654 E0.02431
; PURGING FINISHED
G1 F8640
G1 X122.677 Y45.335 E-0.20582
G1 X125.077 Y45.322 E-0.55418
G1 E-0.04000 F2100.00000
G1 Z0.800 F10800.000
G1 X123.587 Y48.087
G1 Z0.200
G1 E0.80000 F2100.00000
G1 F1200
G1 X126.413 Y48.087 E0.08860
G1 X126.413 Y143.087 E2.97866
G1 X194.413 Y143.087 E2.13209
G1 X194.413 Y161.913 E0.59027
G1 X55.587 Y161.913 E4.35279
G1 X55.587 Y143.087 E0.59027
G1 X123.587 Y143.087 E2.13209
M73 Q5 S53
M73 P5 R53
G1 X123.587 Y48.147 E2.97678
G1 F8640
G1 X126.413 Y48.087 E-0.65264
G1 X126.413 Y48.552 E-0.10736
G1 E-0.04000 F2100.00000
G1 Z0.800 F10800.000
G1 X126.790 Y142.710
G1 Z0.200
G1 E0.80000 F2100.00000
G1 F1200
G1 X194.790 Y142.710 E2.13209
G1 X194.790 Y162.290 E0.61392
G1 X55.210 Y162.290 E4.37643
G1 X55.210 Y142.710 E0.61392
G1 X123.210 Y142.710 E2.13209
G1 X123.210 Y47.710 E2.97866
G1 X126.790 Y47.710 E0.11225
G1 X126.790 Y142.650 E2.97678
G1 X126.795 Y143.110 F10800.000
G1 F8640
G1 X130.081 Y142.653 E-0.76000
G1 E-0.04000 F2100.00000
G1 Z0.800 F10800.000
G1 X144.061 Y161.800
G1 Z0.200
G1 E0.80000 F2100.00000
G1 F1200
G1 X123.870 Y141.609 E0.89675
G1 X123.870 Y142.143 E0.01677
G1 X143.357 Y161.630 E0.86549
G1 X142.823 Y161.630 E0.01677
G1 X123.870 Y142.677 E0.84177
G1 X123.870 Y143.211 E0.01677
G1 X142.289 Y161.630 E0.81805
G1 X141.755 Y161.630 E0.01677
G1 X123.495 Y143.370 E0.81099
G1 X122.960 Y143.370 E0.01677
G1 X141.221 Y161.630 E0.81099
G1 X140.687 Y161.630 E0.01677
G1 X122.426 Y143.370 E0.81099
G1 X121.892 Y143.370 E0.01677
G1 X140.152 Y161.630 E0.81099
G1 X139.618 Y161.630 E0.01677
G1 X121.358 Y143.370 E0.81099
G1 X120.824 Y143.370 E0.01677
G1 X139.084 Y161.630 E0.81099
G1 X138.550 Y161.630 E0.01677
G1 X120.290 Y143.370 E0.81099
G1 X119.756 Y143.370 E0.01677
G1 X138.016 Y161.630 E0.81099
G1 X137.482 Y161.630 E0.01677
G1 X119.222 Y143.370 E0.81099
G1 X118.687 Y143.370 E0.01677
G1 X136.948 Y161.630 E0.81099
G1 X136.414 Y161.630 E0.01677
G1 X118.153 Y143.370 E0.81099
G1 X117.619 Y143.370 E0.01677
G1 X135.879 Y161.630 E0.81099
G1 X135.345 Y161.630 E0.01677
G1 X117.085 Y143.370 E0.81099
G1 X116.551 Y143.370 E0.01677
G1 X134.811 Y161.630 E0.81099
G1 X134.277 Y161.630 E0.01677
G1 X116.017 Y143.370 E0.81099
G1 X115.483 Y143.370 E0.01677
G1 X133.743 Y161.630 E0.81099
G1 X133.209 Y161.630 E0.01677
G1 X114.948 Y143.370 E0.81099
M73 Q7 S52
M73 P7 R52
G1 X114.414 Y143.370 E0.01677
G1 X132.675 Y161.630 E0.81099
G1 X132.140 Y161.630 E0.01677
G1 X113.880 Y143.370 E0.81099
G1 X113.346 Y143.370 E0.01677
G1 X131.606 Y161.630 E0.81099
G1 X131.072 Y161.630 E0.01677
G1 X112.812 Y143.370 E0.81099
G1 X112.278 Y143.370 E0.01677
G1 X130.538 Y161.630 E0.81099
G1 X130.004 Y161.630 E0.01677
G1 X111.744 Y143.370 E0.81099
G1 X111.210 Y143.370 E0.01677
G1 X129.470 Y161.630 E0.81099
G1 X128.936 Y161.630 E0.01677
G1 X110.675 Y143.370 E0.81099
G1 X110.141 Y143.370 E0.01677
G1 X128.402 Y161.630 E0.81099
G1 X127.867 Y161.630 E0.01677
G1 X109.607 Y143.370 E0.81099
G1 X109.073 Y143.370 E0.01677
G1 X127.333 Y161.630 E0.81099
G1 X126.799 Y161.630 E0.01677
G1 X108.539 Y143.370 E0.81099
G1 X108.005 Y143.370 E0.01677
G1 X126.265 Y161.630 E0.81099
G1 X125.731 Y161.630 E0.01677
G1 X107.471 Y143.370 E0.81099
G1 X106.937 Y143.370 E0.01677
G1 X125.197 Y161.630 E0.81099
G1 X124.663 Y161.630 E0.01677
G1 X106.402 Y143.370 E0.81099
G1 X105.868 Y143.370 E0.01677
G1 X124.129 Y161.630 E0.81099
G1 X123.594 Y161.630 E0.01677
G1 X105.334 Y143.370 E0.81099
G1 X104.800 Y143.370 E0.01677
G1 X123.060 Y161.630 E0.81099
G1 X122.526 Y161.630 E0.01677
G1 X104.266 Y143.370 E0.81099
G1 X103.732 Y143.370 E0.01677
G1 X121.992 Y161.630 E0.81099
G1 X121.458 Y161.630 E0.01677
G1 X103.198 Y143.370 E0.81099
G1 X102.664 Y143.370 E0.01677
G1 X120.924 Y161.630 E0.81099
G1 X120.390 Y161.630 E0.01677
G1 X102.129 Y143.370 E0.81099
G1 X101.595 Y143.370 E0.01677
G1 X119.856 Y161.630 E0.81099
G1 X119.321 Y161.630 E0.01677
G1 X101.061 Y143.370 E0.81099
G1 X100.527 Y143.370 E0.01677
G1 X118.787 Y161.630 E0.81099
G1 X118.253 Y161.630 E0.01677
G1 X99.993 Y143.370 E0.81099
G1 X99.459 Y143.370 E0.01677
G1 X117.719 Y161.630 E0.81099
G1 X117.185 Y161.630 E0.01677
G1 X98.925 Y143.370 E0.81099
G1 X98.390 Y143.370 E0.01677
G1 X116.651 Y161.630 E0.81099
G1 X116.117 Y161.630 E0.01677
G1 X97.856 Y143.370 E0.81099
G1 X97.322 Y143.370 E0.01677
G1 X115.582 Y161.630 E0.81099
G1 X115.048 Y161.630 E0.01677
G1 X96.788 Y143.370 E0.81099
G1 X96.254 Y143.370 E0.01677
G1 X114.514 Y161.630 E0.81099
G1 X113.980 Y161.630 E0.01677
G1 X95.720 Y143.370 E0.81099
G1 X95.186 Y143.370 E0.01677
G1 X113.446 Y161.630 E0.81099
G1 X112.912 Y161.630 E0.01677
G1 X94.652 Y143.370 E0.81099
G1 X94.117 Y143.370 E0.01677
G1 X112.378 Y161.630 E0.81099
G1 X111.844 Y161.630 E0.01677
G1 X93.583 Y143.370 E0.81099
G1 X93.049 Y143.370 E0.01677
G1 X111.309 Y161.630 E0.81099
G1 X110.775 Y161.630 E0.01677
G1 X92.515 Y143.370 E0.81099
G1 X91.981 Y143.370 E0.01677
G1 X110.241 Y161.630 E0.81099
G1 X109.707 Y161.630 E0.01677
G1 X91.447 Y143.370 E0.81099
G1 X90.913 Y143.370 E0.01677
G1 X109.173 Y161.630 E0.81099
G1 X108.639 Y161.630 E0.01677
G1 X90.379 Y143.370 E0.81099
M73 Q9 S51
M73 P9 R51
G1 X89.844 Y143.370 E0.01677
G1 X108.105 Y161.630 E0.81099
G1 X107.571 Y161.630 E0.01677
G1 X89.310 Y143.370 E0.81099
G1 X88.776 Y143.370 E0.01677
G1 X107.036 Y161.630 E0.81099
G1 X106.502 Y161.630 E0.01677
G1 X88.242 Y143.370 E0.81099
G1 X87.708 Y143.370 E0.01677
G1 X105.968 Y161.630 E0.81099
G1 X105.434 Y161.630 E0.01677
G1 X87.174 Y143.370 E0.81099
G1 X86.640 Y143.370 E0.01677
G1 X104.900 Y161.630 E0.81099
G1 X104.366 Y161.630 E0.01677
G1 X86.106 Y143.370 E0.81099
G1 X85.571 Y143.370 E0.01677
G1 X103.832 Y161.630 E0.81099
G1 X103.298 Y161.630 E0.01677
G1 X85.037 Y143.370 E0.81099
G1 X84.503 Y143.370 E0.01677
G1 X102.763 Y161.630 E0.81099
G1 X102.229 Y161.630 E0.01677
G1 X83.969 Y143.370 E0.81099
G1 X83.435 Y143.370 E0.01677
G1 X101.695 Y161.630 E0.81099
G1 X101.161 Y161.630 E0.01677
G1 X82.901 Y143.370 E0.81099
G1 X82.367 Y143.370 E0.01677
G1 X100.627 Y161.630 E0.81099
G1 X100.093 Y161.630 E0.01677
G1 X81.832 Y143.370 E0.81099
G1 X81.298 Y143.370 E0.01677
G1 X99.559 Y161.630 E0.81099
G1 X99.025 Y161.630 E0.01677
G1 X80.764 Y143.370 E0.81099
G1 X80.230 Y143.370 E0.01677
G1 X98.490 Y161.630 E0.81099
G1 X97.956 Y161.630 E0.01677
G1 X79.696 Y143.370 E0.81099
G1 X79.162 Y143.370 E0.01677
G1 X97.422 Y161.630 E0.81099
G1 X96.888 Y161.630 E0.01677
G1 X78.628 Y143.370 E0.81099
G1 X78.094 Y143.370 E0.01677
G1 X96.354 Y161.630 E0.81099
G1 X95.820 Y161.630 E0.01677
G1 X77.559 Y143.370 E0.81099
G1 X77.025 Y143.370 E0.01677
G1 X95.286 Y161.630 E0.81099
G1 X94.751 Y161.630 E0.01677
G1 X76.491 Y143.370 E0.81099
G1 X75.957 Y143.370 E0.01677
G1 X94.217 Y161.630 E0.81099
G1 X93.683 Y161.630 E0.01677
G1 X75.423 Y143.370 E0.81099
G1 X74.889 Y143.370 E0.01677
G1 X93.149 Y161.630 E0.81099
G1 X92.615 Y161.630 E0.01677
G1 X74.355 Y143.370 E0.81099
G1 X73.821 Y143.370 E0.01677
G1 X92.081 Y161.630 E0.81099
G1 X91.547 Y161.630 E0.01677
G1 X73.286 Y143.370 E0.81099
G1 X72.752 Y143.370 E0.01677
G1 X91.013 Y161.630 E0.81099
G1 X90.478 Y161.630 E0.01677
G1 X72.218 Y143.370 E0.81099
G1 X71.684 Y143.370 E0.01677
G1 X89.944 Y161.630 E0.81099
G1 X89.410 Y161.630 E0.01677
G1 X71.150 Y143.370 E0.81099
G1 X70.616 Y143.370 E0.01677
G1 X88.876 Y161.630 E0.81099
G1 X88.342 Y161.630 E0.01677
G1 X70.082 Y143.370 E0.81099
G1 X69.548 Y143.370 E0.01677
G1 X87.808 Y161.630 E0.81099
G1 X87.274 Y161.630 E0.01677
G1 X69.013 Y143.370 E0.81099
G1 X68.479 Y143.370 E0.01677
G1 X86.740 Y161.630 E0.81099
G1 X86.205 Y161.630 E0.01677
G1 X67.945 Y143.370 E0.81099
G1 X67.411 Y143.370 E0.01677
G1 X85.671 Y161.630 E0.81099
G1 X85.137 Y161.630 E0.01677
G1 X66.877 Y143.370 E0.81099
G1 X66.343 Y143.370 E0.01677
G1 X84.603 Y161.630 E0.81099
G1 X84.069 Y161.630 E0.01677
G1 X65.809 Y143.370 E0.81099
M73 Q11 S50
M73 P11 R50
G1 X65.275 Y143.370 E0.01677
G1 X83.535 Y161.630 E0.81099
G1 X83.001 Y161.630 E0.01677
G1 X64.740 Y143.370 E0.81099
G1 X64.206 Y143.370 E0.01677
G1 X82.467 Y161.630 E0.81099
G1 X81.932 Y161.630 E0.01677
G1 X63.672 Y143.370 E0.81099
G1 X63.138 Y143.370 E0.01677
G1 X81.398 Y161.630 E0.81099
G1 X80.864 Y161.630 E0.01677
G1 X62.604 Y143.370 E0.81099
G1 X62.070 Y143.370 E0.01677
G1 X80.330 Y161.630 E0.81099
G1 X79.796 Y161.630 E0.01677
G1 X61.536 Y143.370 E0.81099
G1 X61.001 Y143.370 E0.01677
G1 X79.262 Y161.630 E0.81099
G1 X78.728 Y161.630 E0.01677
G1 X60.467 Y143.370 E0.81099
G1 X59.933 Y143.370 E0.01677
G1 X78.193 Y161.630 E0.81099
G1 X77.659 Y161.630 E0.01677
G1 X59.399 Y143.370 E0.81099
G1 X58.865 Y143.370 E0.01677
G1 X77.125 Y161.630 E0.81099
G1 X76.591 Y161.630 E0.01677
G1 X58.331 Y143.370 E0.81099
G1 X57.797 Y143.370 E0.01677
G1 X76.057 Y161.630 E0.81099
G1 X75.523 Y161.630 E0.01677
G1 X57.263 Y143.370 E0.81099
G1 X56.728 Y143.370 E0.01677
G1 X74.989 Y161.630 E0.81099
G1 X74.455 Y161.630 E0.01677
G1 X56.194 Y143.370 E0.81099
G1 X55.870 Y143.370 E0.01019
G1 X55.870 Y143.580 E0.00658
G1 X73.920 Y161.630 E0.80168
G1 X73.386 Y161.630 E0.01677
G1 X55.870 Y144.114 E0.77796
G1 X55.870 Y144.648 E0.01677
G1 X72.852 Y161.630 E0.75424
G1 X72.318 Y161.630 E0.01677
G1 X55.870 Y145.182 E0.73051
G1 X55.870 Y145.716 E0.01677
G1 X71.784 Y161.630 E0.70679
G1 X71.250 Y161.630 E0.01677
G1 X55.870 Y146.250 E0.68307
G1 X55.870 Y146.784 E0.01677
G1 X70.716 Y161.630 E0.65935
G1 X70.182 Y161.630 E0.01677
G1 X55.870 Y147.318 E0.63562
G1 X55.870 Y147.853 E0.01677
G1 X69.647 Y161.630 E0.61190
G1 X69.113 Y161.630 E0.01677
G1 X55.870 Y148.387 E0.58818
G1 X55.870 Y148.921 E0.01677
G1 X68.579 Y161.630 E0.56446
G1 X68.045 Y161.630 E0.01677
G1 X55.870 Y149.455 E0.54074
G1 X55.870 Y149.989 E0.01677
G1 X67.511 Y161.630 E0.51701
G1 X66.977 Y161.630 E0.01677
G1 X55.870 Y150.523 E0.49329
G1 X55.870 Y151.057 E0.01677
G1 X66.443 Y161.630 E0.46957
G1 X65.909 Y161.630 E0.01677
G1 X55.870 Y151.591 E0.44585
G1 X55.870 Y152.126 E0.01677
G1 X65.374 Y161.630 E0.42212
G1 X64.840 Y161.630 E0.01677
G1 X55.870 Y152.660 E0.39840
G1 X55.870 Y153.194 E0.01677
G1 X64.306 Y161.630 E0.37468
G1 X63.772 Y161.630 E0.01677
G1 X55.870 Y153.728 E0.35096
G1 X55.870 Y154.262 E0.01677
G1 X63.238 Y161.630 E0.32724
G1 X62.704 Y161.630 E0.01677
G1 X55.870 Y154.796 E0.30351
G1 X55.870 Y155.330 E0.01677
G1 X62.170 Y161.630 E0.27979
G1 X61.636 Y161.630 E0.01677
G1 X55.870 Y155.864 E0.25607
G1 X55.870 Y156.399 E0.01677
G1 X61.101 Y161.630 E0.23235
G1 X60.567 Y161.630 E0.01677
G1 X55.870 Y156.933 E0.20862
G1 X55.870 Y157.467 E0.01677
G1 X60.033 Y161.630 E0.18490
G1 X59.499 Y161.630 E0.01677
